assets/candy-logo.svg

<svg width="118" height="26" viewBox="0 0 118 26" fill="none" xmlns="http://www.w3.org/2000/svg">
<path d="M12.9381 3.8429C15.9233 3.8429 18.7117 5.27349 20.397 7.66976L20.6371 8.01135L23.412 5.29419L23.2285 5.05466C20.767 1.84242 17.0003 0 12.8942 0C5.78426 0 7.62939e-06 5.64269 7.62939e-06 12.5786C7.62939e-06 19.5145 5.78426 25.1572 12.8942 25.1572C16.69 25.1572 20.2766 23.5352 22.734 20.7071L22.9448 20.4645L20.213 17.7898L19.9665 18.0864C18.2425 20.1611 15.6809 21.3512 12.9381 21.3512C7.9627 21.3512 3.91479 17.424 3.91479 12.5971C3.91479 7.77005 7.9627 3.8429 12.9381 3.8429Z" fill="#414047"/>
<path d="M113.386 0.520304L111.607 3.34844L106.167 11.7388L100.014 2.22671L98.9412 0.520304H94.328L96.3718 3.65653L104.245 15.8262V23.0023C104.245 23.0285 104.246 23.0541 104.248 23.0785L104.249 24.8283C104.249 24.8743 104.286 24.9114 104.333 24.9114H105.035C106.731 24.9114 108.106 23.5651 108.106 21.9044L108.105 15.826L116.129 3.39752C116.141 3.37849 116.151 3.36001 116.159 3.34343L117.999 0.520304H113.386Z" fill="#414047"/>
<path d="M34.0934 2.30262L24.0274 24.8702H28.2648L36.2739 7.08392L44.2829 24.8702H48.4741L37.583 0.548908C37.5695 0.518744 37.5389 0.499153 37.5052 0.499153H36.8247C35.6039 0.499153 34.582 1.20716 34.0934 2.30262Z" fill="#414047"/>
<path d="M76.093 0.552088V4.31896H81.0591L81.0986 4.3095H83.2546C85.6145 4.3095 87.6522 5.13816 89.3127 6.77389C90.9815 8.3976 91.8278 10.3925 91.8278 12.7032C91.8278 15.0037 90.9813 16.999 89.3118 18.6336C87.6534 20.2572 85.6154 21.0805 83.2546 21.0805H81.3391V21.0791H76.0907V24.8508L83.2546 24.8505C86.6759 24.8505 89.6332 23.6535 92.0445 21.2929C94.4556 18.932 95.678 16.042 95.678 12.7032C95.678 9.35348 94.4556 6.45801 92.0445 4.09735C89.6334 1.73659 86.6759 0.539511 83.2546 0.539511H78.0101" fill="#414047"/>
<path d="M67.7186 17.9916L55.2587 0.555483H51.5744V24.8454H55.4457V7.45446L67.9063 24.8454H71.5902V0.555483H67.7186V17.9916Z" fill="#414047"/>
</svg>

<svg xmlns="http://www.w3.org/2000/svg" width="118" height="26" fill="none" viewBox="0 0 118 26"><path fill="#414047" d="M12.938 3.843c2.985 0 5.774 1.43 7.459 3.827l.24.341 2.775-2.717-.183-.24C20.767 1.843 17 0 12.894 0 5.784 0 0 5.643 0 12.579s5.784 12.578 12.894 12.578c3.796 0 7.383-1.622 9.84-4.45l.21-.242-2.731-2.675-.247.296c-1.724 2.075-4.285 3.265-7.028 3.265-4.975 0-9.023-3.927-9.023-8.754s4.048-8.754 9.023-8.754M113.386.52l-1.779 2.828-5.44 8.39-6.153-9.511L98.941.52h-4.613l2.044 3.137 7.873 12.17v7.175q0 .04.003.076l.001 1.75c0 .046.037.083.084.083h.702c1.696 0 3.071-1.346 3.071-3.007l-.001-6.078 8.024-12.428.03-.055 1.84-2.823zM34.093 2.303 24.027 24.87h4.238l8.009-17.786 8.009 17.786h4.191L37.583.55a.09.09 0 0 0-.078-.05h-.68c-1.221 0-2.243.708-2.732 1.804M76.093.552V4.32h4.966l.04-.01h2.156c2.36 0 4.397.83 6.058 2.465 1.668 1.624 2.515 3.619 2.515 5.93 0 2.3-.847 4.295-2.516 5.93-1.659 1.623-3.697 2.447-6.057 2.447h-1.916v-.002h-5.248v3.772h7.164c3.42 0 6.378-1.197 8.79-3.558 2.41-2.361 3.633-5.251 3.633-8.59 0-3.35-1.222-6.245-3.633-8.606S86.675.54 83.255.54H78.01M67.719 17.992 55.259.555h-3.685v24.29h3.872V7.455l12.46 17.39h3.684V.555H67.72z"/></svg>
